picto/ski-rack.svg

<svg class="color-immutable" width="24" height="24" viewBox="0 0 24 24" fill="none" xmlns="http://www.w3.org/2000/svg"><path d="M0 22.5V1.5C0 0.675 0.675 0 1.5 0H22.5C23.325 0 24 0.675 24 1.5V22.5C24 23.325 23.325 24 22.5 24H1.5C0.675 24 0 23.325 0 22.5Z" fill="#2D327D"/><path d="M4.03198 16.795C4.45298 16.795 4.79498 16.454 4.79498 16.032C4.79498 15.611 4.45298 15.269 4.03198 15.269C3.60998 15.269 3.26898 15.611 3.26898 16.032C3.26798 16.454 3.60998 16.795 4.03198 16.795Z" fill="white"/><path d="M9.58997 16.795C10.012 16.795 10.353 16.454 10.353 16.032C10.353 15.611 10.011 15.269 9.58997 15.269C9.16797 15.269 8.82697 15.611 8.82697 16.032C8.82697 16.454 9.16897 16.795 9.58997 16.795Z" fill="white"/><path d="M3.99398 8.67401C4.41498 8.67401 4.75698 8.33201 4.75698 7.91101C4.75698 7.48901 4.41498 7.14801 3.99398 7.14801C3.57198 7.14801 3.22998 7.49001 3.22998 7.91101C3.22998 8.33201 3.57198 8.67401 3.99398 8.67401Z" fill="white"/><path d="M9.56696 8.67401C9.98796 8.67401 10.33 8.33201 10.33 7.91101C10.33 7.48901 9.98796 7.14801 9.56696 7.14801C9.14496 7.14801 8.80396 7.49001 8.80396 7.91101C8.80396 8.33201 9.14596 8.67401 9.56696 8.67401Z" fill="white"/><path d="M7.84198 21.171L8.48098 21.598L4.95498 3.87898L4.95098 3.87998L4.92098 3.78198C4.88298 3.66598 4.84098 3.61298 4.71598 3.40598C4.59098 3.19898 4.40498 2.99698 4.13598 2.84198C3.86698 2.68598 3.51598 2.64398 3.51598 2.64398C3.51598 2.64398 3.36898 2.73698 3.42998 2.77098C3.48998 2.80498 4.04498 3.19798 4.17598 3.39598C4.30698 3.59398 4.41698 3.98498 4.41698 3.98498L4.48798 3.97198L4.41998 3.98598L5.92798 11.557L5.77198 11.587L5.58298 11.754L5.40498 11.881L5.30398 12.215L5.22898 12.729L4.67598 13.539L4.19498 13.633L4.36598 14.506L6.43098 14.102" fill="white"/><path d="M9.98399 13.409L9.81399 12.537L9.33299 12.63L8.51499 12.088L8.25199 11.639L8.03199 11.368L7.81899 11.317L7.58099 11.234L7.45499 11.259L5.94799 3.68998H5.94899C5.94899 3.68998 5.90999 3.28298 5.95699 3.05098C6.00399 2.81798 6.36999 2.24698 6.41299 2.19098C6.45599 2.13698 6.28399 2.10498 6.28399 2.10498C6.28399 2.10498 5.97499 2.27598 5.78399 2.52098C5.59299 2.76698 5.49699 3.02398 5.45899 3.26198C5.41999 3.50098 5.40299 3.56598 5.41099 3.68798L5.41899 3.79998H5.41699L8.94399 21.52L9.36999 20.873L7.96199 13.803L9.98399 13.409Z" fill="white"/></svg>

<svg class="color-immutable" width="24" height="24" viewBox="0 0 24 24" fill="none" xmlns="http://www.w3.org/2000/svg"><g clip-path="url(#a)"><path d="M0 22.5v-21C0 .675.675 0 1.5 0h21c.825 0 1.5.675 1.5 1.5v21c0 .825-.675 1.5-1.5 1.5h-21C.675 24 0 23.325 0 22.5Z" fill="#2D327D"/><path d="M4.032 16.795a.763.763 0 1 0 0-1.526.763.763 0 0 0 0 1.526ZM9.59 16.795a.762.762 0 1 0 .002-1.524.762.762 0 0 0-.002 1.524ZM3.994 8.674a.764.764 0 1 0-.001-1.527.764.764 0 0 0 .001 1.527ZM9.567 8.674a.764.764 0 1 0-.001-1.527.764.764 0 0 0 .001 1.527Z" fill="#fff"/><path d="m7.842 21.171.639.427L4.955 3.879l-.004.001-.03-.098c-.038-.116-.08-.169-.205-.376a1.605 1.605 0 0 0-.58-.564c-.269-.156-.62-.198-.62-.198s-.147.093-.086.127c.06.034.615.427.746.625s.241.589.241.589l.071-.013-.068.014 1.508 7.571-.156.03-.189.167-.178.127-.101.334-.075.514-.553.81-.481.094.171.873 2.065-.404M9.984 13.409l-.17-.872-.481.093-.818-.542-.263-.449-.22-.271-.213-.051-.238-.083-.126.025L5.948 3.69h.001s-.039-.407.008-.639c.047-.233.413-.804.456-.86.043-.054-.129-.086-.129-.086s-.309.171-.5.416a1.613 1.613 0 0 0-.325.741c-.039.239-.056.304-.048.426l.008.112h-.002l3.527 17.72.426-.647-1.408-7.07 2.022-.394Z" fill="#fff"/></g><defs><clipPath id="a"><path fill="#fff" d="M0 0h24v24H0z"/></clipPath></defs></svg>
